files/resources/svgs/general/m-arrow-right-on-rectangle.svg

<svg width="20" height="20" viewBox="0 0 20 20" fill="none" xmlns="http://www.w3.org/2000/svg">
<path fill-rule="evenodd" clip-rule="evenodd" d="M3 4.25C3 3.00736 4.00736 2 5.25 2H10.75C11.9926 2 13 3.00736 13 4.25V6.25C13 6.66421 12.6642 7 12.25 7C11.8358 7 11.5 6.66421 11.5 6.25V4.25C11.5 3.83579 11.1642 3.5 10.75 3.5H5.25C4.83579 3.5 4.5 3.83579 4.5 4.25V15.75C4.5 16.1642 4.83579 16.5 5.25 16.5H10.75C11.1642 16.5 11.5 16.1642 11.5 15.75V13.75C11.5 13.3358 11.8358 13 12.25 13C12.6642 13 13 13.3358 13 13.75V15.75C13 16.9926 11.9926 18 10.75 18H5.25C4.00736 18 3 16.9926 3 15.75V4.25Z" fill="#0F172A"/>
<path fill-rule="evenodd" clip-rule="evenodd" d="M6 10C6 9.58579 6.33579 9.25 6.75 9.25H16.2955L15.2483 8.30747C14.9404 8.03038 14.9154 7.55616 15.1925 7.24828C15.4696 6.94039 15.9438 6.91543 16.2517 7.19253L18.7517 9.44253C18.9098 9.58476 19 9.78738 19 10C19 10.2126 18.9098 10.4152 18.7517 10.5575L16.2517 12.8075C15.9438 13.0846 15.4696 13.0596 15.1925 12.7517C14.9154 12.4438 14.9404 11.9696 15.2483 11.6925L16.2955 10.75H6.75C6.33579 10.75 6 10.4142 6 10Z" fill="#0F172A"/>
</svg>

<svg xmlns="http://www.w3.org/2000/svg" viewBox="0 0 20 20" fill="currentColor" aria-hidden="true">
  <path fill-rule="evenodd" d="M3 4.25A2.25 2.25 0 015.25 2h5.5A2.25 2.25 0 0113 4.25v2a.75.75 0 01-1.5 0v-2a.75.75 0 00-.75-.75h-5.5a.75.75 0 00-.75.75v11.5c0 .414.336.75.75.75h5.5a.75.75 0 00.75-.75v-2a.75.75 0 011.5 0v2A2.25 2.25 0 0110.75 18h-5.5A2.25 2.25 0 013 15.75V4.25z" clip-rule="evenodd"/>
  <path fill-rule="evenodd" d="M6 10a.75.75 0 01.75-.75h9.546l-1.048-.943a.75.75 0 111.004-1.114l2.5 2.25a.75.75 0 010 1.114l-2.5 2.25a.75.75 0 11-1.004-1.114l1.048-.943H6.75A.75.75 0 016 10z" clip-rule="evenodd"/>
</svg>
